X:1
T: Kind and Easey
N:
C:
S:
A:
O:
R:
M:6/8
K:D
I:speed 150
%W: A1
% voice 1 (1 lines, 36 notes)
K:D
M:6/8
L:1/16
D6 F4 A2 d6 f2 a2 f2 e4 d2 c4 B2 A6A3 e f g |a2 b2 f2 g2 a2 e2 f2 g2 d2 e2 a2 g2 f3 e d2 A2 F2 A2 d6d6 |
%W: A2
% voice 1 (1 lines, 36 notes)
D6 F4 A2 d6 f2 a2 f2 e4 d2 c4 B2 A6A3 e f g |a2 b2 f2 g2 a2 e2 f2 g2 d2 e2 a2 g2 f3 e d2 A2 F2 A2 d6d6 |
%W: B
% voice 1 (1 lines, 42 notes)
e6 d6 c2 B2 A2 c2 B2 A2 f6 e6 d2 c2 B2 d2 c2 B2 |g6 f6 e2 f2 g2 d2 e2 f2 c3 B A2 e2 a2 ^g2 a6a4 f2 ||g4 b2 a3 g f2 e4 a2 e4 g2
%W:
% voice 1 (1 lines, 45 notes)
f2 e2 d2 f2 e2 d2 c6 A3 e f g |a4 A2 G4 g2 f4 F2 E2 A2 G2 F3 E D2 A2 d2 c2 d6 A2 B2 =c2 ||B2 A2 G2 B2 A2 G2 A6 G6 F3 E D2 A4 c2 d6d6 ||
